src/topics/icons/lateral.svg

<svg height="243" preserveAspectRatio="xMidYMid" viewBox="0 0 256 243" width="256" xmlns="http://www.w3.org/2000/svg"><path d="m191.892 242.859-191.892-28.747 128.888-75.748z" fill="#82c0f4"/><path d="m256 214.539-64.108 28.32-63.669-101.785 2.848-.605 121.567 69.895z" fill="#d7e9f9"/><path d="m192.922 105.118 63.078 109.421-127.777-73.465 1.071-3.48 59.344-32.98z" fill="#a7cceb"/><path d="m0 214.112 62.907-109.253 1.603-1.973 60.378 33.478 3.335 4.71z" fill="#adceeb"/><path d="m80.862.844 3.026 4.52 45.255 133.993-.92 1.717-65.316-36.215z" fill="#67aad6"/><path d="m192.922 105.118-64.699 35.956-47.361-140.23z" fill="#e3f7ff"/></svg>

<?xml version="1.0" encoding="UTF-8" standalone="no"?>
<svg width="256px" height="243px" viewBox="0 0 256 243" version="1.1" xmlns="http://www.w3.org/2000/svg" xmlns:xlink="http://www.w3.org/1999/xlink" preserveAspectRatio="xMidYMid">
	<g>
		<path d="M191.892,242.859 L0,214.112 L128.888,138.364 L191.892,242.859" fill="#82C0F4"></path>
		<path d="M256,214.539 L191.892,242.859 L128.223,141.074 L131.071,140.469 L252.638,210.364 L256,214.539" fill="#D7E9F9"></path>
		<path d="M192.922,105.118 L256,214.539 L128.223,141.074 L129.294,137.594 L188.638,104.614 L192.922,105.118" fill="#A7CCEB"></path>
		<path d="M0,214.112 L62.907,104.859 L64.51,102.886 L124.888,136.364 L128.223,141.074 L0,214.112" fill="#ADCEEB"></path>
		<path fill="#67AAD6"></path>
		<path d="M80.862,0.844 L83.888,5.364 L129.143,139.357 L128.223,141.074 L62.907,104.859 L80.862,0.844" fill="#67AAD6"></path>
		<path d="M192.922,105.118 L128.223,141.074 L80.862,0.844 L192.922,105.118" fill="#E3F7FF"></path>
	</g>
</svg>
